X:643
M:C|
L:1/8
K:E Minor
EB E/E/E e2 B>d|FDFd FDDF|EB E/E/E e2 Bd|FDdF E/E/E E2:|
ebge Bgf^d|eBdA FDDF|ebge bege|Bgf^d e/e/e e>f|ebge bege|

